X: 35818
T: Salton
R: polka
M: 2/4
K: Cmajor
G|:ce cB|AG EG|FD EF|AG EG|
ce cB|AG EG|FD B,D|1 C3 G:|2 C2 CD||
EC EC|FG FE|FD EC|
DE DC|B,C DE|FG FE|DC B,D|
C2 CD|EC EC|FG FE|FD EC|
DE DC|B,C DE|FG FE|DC B,D|
C4|:G2 AB|c2 dc|B3 c|
A2 AB|1 G4:|2 G3 A||F2 FG|E4|
A2 AB|G2 GA|F2 FG|E4|
A2 A B|G2 GF|G2 AB|c3 G|:ce cB|
AG EG|FD EF|AG EG|ce cB|
AG EG|FD B,D|1 C3 G:|2 C2 CD||
EC EC|FG FE|FD EC|DE DC|
B,C DE|FG FE|DC B,D|C2 CD|
EC EC|FG FE|FD EC|DE DC|
B,C DE|FG FE|DC B,D|C3 G|
EG EG|EC CA|FA FA|FD DG|
EG EG|EC CA|FA FA|FD GG|
EC AA|FD GG|EC AA|FD DE|
DC B,D|:C2 CE|DC B,D|GE CE|
DC B,D:|C2 C G|:AB AG|FE FE|
DB, DD|ED CG|AB AG|FE FE|
DC B,D|1 C2 CG:|2 C3 C||EC EC|
E2 EC|EC EC|F2 FC|EF EC|
EF EB,|DB, DE|C3 c|ec ec|
e2 ec|ec ec|f2 fc|ef ec|
ef eB|dB de|c3 G|:ce cB|
AG EG|FD EF|AG EG|ce cB|
AG EG|FD B,D|1 C3 G:|2 C2 CD||
EC EC|FG FE|FD EC|DE DC|
B,C DE|FG FE|DC B,D|C2 CD|
EC EC|FG FE|FD EC|DE DC|
B,C DE|FG FE|DC B,D|C3 G|
EG EG|EC CA|FA FA|FD DG|
EG EG|EC CA|FA FA|FD GG|
EC AA|FD GG|EC AA|FD DE|
DC B,D|:C2 CE|DC B,D|GE CE|
DC B,D:|C2 CG|:AB AG|FE FE|
DB, DD|ED CG|AB AG|FE FE|
DC B,D|1 C2 CG:|2 C4||
|:G2 GF|E2 EF|G2 E2|Gc GF|ED EF|
G2 E2|EF DE|C2 DC|B,4|EF DE|
C2 DB,|C4|EF DE|C2 DC|
B,4|EF DE|C2 DB,|1 C4:|2 C3 G||
|:ce cB|AG EG|FD EF|AG EG|ce cB|
AG EG|FD B,D|1 C3 G:|2 C2 CD||
EC EC|FG FE|FD EC|DE DC|
B,C DE|FG FE|DC B,D|C2 CD|
EC EC|FG FE|FD EC|DE DC|
B,C DE|FG FE|DC B,D|C3 G|
EG EG|EC CA|FA FA|FD DG|
EG EG|EC CA|FA FA|FD GG|
EC AA|FD GG|EC AA|FD DE|
DC B,D|:C2 CE|DC B,D|GE CE|
DC B,D:|C4||

